!!!OTL: Der Schwanendreher. / (Tanzlied.)
!!!ARE: Europa, Mitteleuropa, Deutschland
!!!SCT: A0315
!!!TXL: @@GMH
!!!YEM: Copyright 1995, estate of Helmut Schaffrath.
**kern	**text
*M4/2	*
*met(c|)	*
*k[f#c#g#]	*
*A:	*
=1	=1
!LO:TX:a:t=A dur.	!
{(4b/	Seid
4a)	.
(4g#	ihr
4f#)	.
2e	nicht
2f#	der
=2	=2
2g#	Schwanen-
2g#	.
2f#	-dre-
2f#}	-her?
=3	=3
{2g#	ſeid
2a	ihr
2b/	nicht
2b/	der-
=4	=4
2.cc#	-ſel-
4b	-big
(2a	man,
4b/	.
4cc#/)}	.
=5	=5
{2dd	ſeid
2b	ihr
2cc#	nicht
2cc#	der-
=6	=6
2.b/	-ſel-
4e	-big
1b}	man?
=7||	=7||
{1dd	So
2dd	dre-
2cc#	-her
=8	=8
2b/	mir
(4a	den
4gn)	.
1f#}	Schwan,
=9	=9
{1dd	ſo
2dd	hab
2cc#	ich
=10	=10
2b	glauben
(4a	.
4gn)	.
2f#}	dran,
{2f#	ſo
=11	=11
1b	hab
1a	ich
=12	=12
2.g#	glauben
4f#	.
2e}	dran;
=||	=||
{2b	und
=13	=13
2cc#	dreht
2b	ihr
2cc#	mir
2dd	den
=14	=14
2ee	Schwanen
(4dd	.
4cc#)	.
2b}	nit,
{2a	ſeid
=15	=15
2g#	ihr
2f#	kein
2g#	Schwa-
2a	-nen-
=16	=16
2b/	-dre-
(4a	-her
4g#)	.
2f#}	nit;
{2b/	dreht
=17	=17
1cc#	mir
1b	den
=18	=18
(2.g#	Schwanen,
4f#)	.
2e}	.
{2e	dreht
=19	=19
1cc#	mir
1b	den
=20	=20
(2.a	Schwanen.
4f#)	.
1a}	.
==	==
!!!GTL: Tanz- und Kranzlieder
!!!AGN: Romanze, Ballade, Lied
!! Hainhofer, Lautenbuch II. 1603. Bl. 13b Hs. in Wolfenbuettel.
!!!ONB: ESAC (Essen Associative Code) Database: ALTDEU
!!!AMT: simple quadruple
!!!AIN: vox
!!!EED: Helmut Schaffrath
!!!EEV: 1.0
!!!URL-scan: https://rosdok.uni-rostock.de/mcrviewer/recordIdentifier/rosdok_ppn738218359/iview2/phys_0468.iview2?x=-495.6391625615763&y=527.4960591057315&scale=0.4629418472063854&rotation=0&layout=singlePageLayout
!!!ENC: Anna Maria Matuszewska
!!!EEV: 2024/13/03
*-	*-
